X: 23
T:Hallelujah
% Nottingham Music Database
S:Eric Foxley
Q:3/8=56
M:6/4
L:1/8
K:C
G, | G2 G G2 G AAA3 G, | 
G2 GG GG A2 A A2 A | A2 A A2 A A2 GG F2 | G G8 z2 G, |
G2 G G2 G A2 A B2 C | cc c3 c cc d3 d | 
d2 d d2 d e2 e2 ed | dc4 | 

